X:9562
T:Leventine's Barrel
M:2/4
L:1/16
K:D
fe|dfAd f2fe|d2ba ^gafd|ceAc eAce|defg a2fe|
dfAd f2fe|d2ba ^gafd|ceAc eAce|d2f2 d2:|
|:A2|B2c2 d2cB|BA^GA F2ed|ceAc eAce|defg a2A2|
B2c2 d2cB|BA^GA F2ed|ceAc eAce|d2f2 d2:|


